_includes/svg/stack-overflow.svg

<svg xmlns="http://www.w3.org/2000/svg" width="75" height="75" viewBox="0 0 75 75"><title>Stack Overflow icon</title><circle cx="37.5" cy="37.5" r="37.5" fill="#797476"/><path fill="#fff" d="M50.36 55.66v-11.83h3.94v15.77h-35.47v-15.77h3.95v11.83h27.58zM27.12 42.74l19.29 4 .82-3.86-19.3-4zm2.55-9.24l17.88 8.32 1.66-3.57-17.87-8.33zm4.95-8.77l15.15 12.62 2.52-3-15.15-12.65zm9.78-9.33l-3.17 2.35 11.77 15.82 3.17-2.35zm-17.67 36.31h19.71v-3.94h-19.71z"/></svg>

<svg id="Layer_1" data-name="Layer 1" xmlns="http://www.w3.org/2000/svg" width="75" height="75" viewBox="0 0 75 75"><title>Stack Overflow icon</title><circle cx="37.5" cy="37.5" r="37.5" fill="#797476"/><polygon points="50.36 55.66 50.36 43.83 54.3 43.83 54.3 59.6 18.83 59.6 18.83 43.83 22.78 43.83 22.78 55.66 50.36 55.66" fill="#fff"/><path d="M27.12,42.74l19.29,4,.82-3.86-19.3-4Zm2.55-9.24,17.88,8.32,1.66-3.57L31.34,29.92Zm4.95-8.77L49.77,37.35l2.52-3L37.14,21.7ZM44.4,15.4l-3.17,2.35L53,33.57l3.17-2.35ZM26.73,51.71H46.44V47.77H26.73Z" fill="#fff"/></svg>
